!!!COM: de Févin, Antoine
!!!CDT: ~1470//-~1511//
!!!OPR: Missa Ave Maria
!!!ONM: 4
!!!OTL: Sanctus
!!!AGN: Mass; Sanctus
!!!SCT: Fva1001d
!!!SCA: Fva1001d
!!!voices-OPR: 4
!!!voices: 4
**kern	**text	**kern	**text	**kern	**text	**kern	**text
*staff4	*staff4	*staff3	*staff3	*staff2	*staff2	*staff1	*staff1
*Ivox	*	*Ivox	*	*Ivox	*	*Ivox	*
*I"Bassus	*	*I"Tenor	*	*I"Altus	*	*I"Superius	*
*I'B	*	*I'T	*	*I'A	*	*I'S	*
*>[A,B,C,D]	*>[A,B,C,D]	*>[A,B,C,D]	*>[A,B,C,D]	*>[A,B,C,D]	*>[A,B,C,D]	*>[A,B,C,D]	*>[A,B,C,D]
*>A	*>A	*>A	*>A	*>A	*>A	*>A	*>A
*clefF4	*	*clefGv2	*	*clefGv2	*	*clefG2	*
*k[]	*	*k[]	*	*k[]	*	*k[]	*
*M2/1	*	*M2/1	*	*M2/1	*	*M2/1	*
*met(C|)	*	*met(C|)	*	*met(C|)	*	*met(C|)	*
!!section: Sanctus
!!!OMD: Sanctus
=1-	=1-	=1-	=1-	=1-	=1-	=1-	=1-
0r	.	0r	.	1G	San-	0r	.
.	.	.	.	[1c	.	.	.
=2	=2	=2	=2	=2	=2	=2	=2
0r	.	0r	.	1c]	.	0r	.
.	.	.	.	1c	-ctus,	.	.
=3	=3	=3	=3	=3	=3	=3	=3
0r	.	0r	.	1d	.	1r	.
.	.	.	.	[1e	.	1g	San-
=4	=4	=4	=4	=4	=4	=4	=4
0r	.	0r	.	2e\]	.	0cc	.
.	.	.	.	4d\	.	.	.
.	.	.	.	4c\	.	.	.
.	.	.	.	1f	.	.	.
=5	=5	=5	=5	=5	=5	=5	=5
0r	.	0r	.	2e\	.	1cc	-ctus,
.	.	.	.	1f	.	.	.
.	.	.	.	.	.	1dd	.
.	.	.	.	4e\	.	.	.
.	.	.	.	4d\	.	.	.
=6	=6	=6	=6	=6	=6	=6	=6
0r	.	0r	.	1c	.	1.ee	.
.	.	.	.	2r	.	.	.
.	.	.	.	[2f\	[San-	4dd\	.
.	.	.	.	.	.	4cc\	.
=7	=7	=7	=7	=7	=7	=7	=7
0r	.	0r	.	2f\]	.	1ff	.
.	.	.	.	2d\	.	.	.
.	.	.	.	2e\	.	2ee\	.
.	.	.	.	2d\	.	[2ff\	.
=8	=8	=8	=8	=8	=8	=8	=8
0r	.	0r	.	1f	.	2ff\]	.
.	.	.	.	.	.	4ee\	.
.	.	.	.	.	.	4dd\	.
.	.	.	.	2e\	.	2cc\	.
.	.	.	.	[2d\	.	[2ff\	.
=9	=9	=9	=9	=9	=9	=9	=9
0r	.	0r	.	2d\]	.	2ff\]	.
.	.	.	.	4c\	.	2dd\	.
.	.	.	.	4B\	.	.	.
.	.	.	.	2c\	.	2ee\	.
.	.	.	.	2d\	.	[2dd\	.
=10	=10	=10	=10	=10	=10	=10	=10
0r	.	0r	.	1G	-ctus,]	2dd\]	.
.	.	.	.	.	.	4cc\	.
.	.	.	.	.	.	4b\	.
.	.	.	.	2r	.	2cc\	.
.	.	.	.	2d\	[San-	2dd\	.
=11	=11	=11	=11	=11	=11	=11	=11
0r	.	0r	.	2.e\	-ctus,]	1g	.
.	.	.	.	4f\	.	.	.
.	.	.	.	1g	.	2r	.
.	.	.	.	.	.	2g/	San-
=12	=12	=12	=12	=12	=12	=12	=12
0r	.	0r	.	2r	.	2a/	.
.	.	.	.	2G/	[San-	2b\	.
.	.	.	.	2.A/	.	2.cc\	.
.	.	.	.	4B\	.	4b\	.
=13	=13	=13	=13	=13	=13	=13	=13
0r	.	0r	.	2c\	.	2g/	.
.	.	.	.	2d\	.	2b\	.
.	.	.	.	2e\	.	2cc\	.
.	.	.	.	[2f\	.	[2dd\	.
=14	=14	=14	=14	=14	=14	=14	=14
0r	.	1r	.	4f\]	.	4dd\]	.
.	.	.	.	4e\	.	4cc\	.
.	.	.	.	4d\	.	1cc	.
.	.	.	.	4c\	.	.	.
.	.	1G	San-	1d	-ctus,]	.	.
.	.	.	.	.	.	2b\	.
=15	=15	=15	=15	=15	=15	=15	=15
1r	.	0c	.	2r	.	0cc	-ctus
.	.	.	.	2.c\	San-	.	.
2r	.	.	.	.	.	.	.
.	.	.	.	4B\	.	.	.
[2F\	San-	.	.	[2A/	.	.	.
=16	=16	=16	=16	=16	=16	=16	=16
2F\]	.	1c	-ctus,	2A/]	.	0r	.
2E\	.	.	.	2G/	.	.	.
2F\	.	1d	.	2A/	.	.	.
2D\	.	.	.	2F/	.	.	.
=17	=17	=17	=17	=17	=17	=17	=17
2C/	.	1.e	.	1G	.	0r	.
1G	.	.	.	.	.	.	.
.	.	.	.	1A	.	.	.
2F\	.	2d\	.	.	.	.	.
=18	=18	=18	=18	=18	=18	=18	=18
2G\	.	1e	.	2G/	.	0r	.
2E\	.	.	.	1c	.	.	.
1D	-ctus,	1f	.	.	.	.	.
.	.	.	.	2B\	.	.	.
=19	=19	=19	=19	=19	=19	=19	=19
1r	.	1e	.	2c\	.	0r	.
.	.	.	.	2A/	.	.	.
2r	.	2.g\	San-	1G	-ctus	.	.
[2c\	[San-	.	.	.	.	.	.
.	.	4f\	.	.	.	.	.
=20	=20	=20	=20	=20	=20	=20	=20
2c\]	.	2e\	.	2r	.	1g	Do-
2B\	.	2d\	.	1g	Do-	.	.
2c\	.	2e\	.	.	.	1a	-mi-
2A\	.	2c\	.	2f\	-mi-	.	.
=21	=21	=21	=21	=21	=21	=21	=21
2G\	.	2.d\	.	2g\	-nus	2.b\	-nus
1d	.	.	.	1G	De-	.	.
.	.	4c\	.	.	.	4cc\	.
.	.	2B\	.	.	.	2dd\	.
2c\	.	2A/	.	2A/	.	[2ee\	De-
=22	=22	=22	=22	=22	=22	=22	=22
2d\	.	1G	-ctus,	2B\	.	2ee\]	.
2B\	.	.	.	2G/	.	2dd\	.
1A	-cuts,]	1r	.	2.c\	.	2ff\	.
.	.	.	.	.	.	[2ee\	.
.	.	.	.	4d\	.	.	.
=23	=23	=23	=23	=23	=23	=23	=23
0r	.	1r	.	2e\	.	2ee\]	.
.	.	.	.	2f\	.	4dd\	.
.	.	.	.	.	.	4cc\	.
.	.	[1G	Do-	2.g\	.	2b\	.
.	.	.	.	.	.	[2dd\	.
.	.	.	.	4f\	.	.	.
=24	=24	=24	=24	=24	=24	=24	=24
1r	.	2G/]	.	2g\	.	2dd\]	.
.	.	2A/	-mi-	2e\	.	2cc\	.
2r	.	1B	-nus	1d	-us	2dd\	.
[2G\	San-	.	.	.	.	4cc\	.
.	.	.	.	.	.	4b\	.
=25	=25	=25	=25	=25	=25	=25	=25
2G\]	.	2c\	De-	0r	.	1a	.
2F\	.	1d	.	.	.	.	.
2G\	.	.	.	.	.	1g	-us
2E\	.	2c\	.	.	.	.	.
=26	=26	=26	=26	=26	=26	=26	=26
2D\	.	2d\	.	0r	.	0r	.
1A	.	2e\	.	.	.	.	.
.	.	2f\	.	.	.	.	.
2G\	.	[2e\	.	.	.	.	.
=27	=27	=27	=27	=27	=27	=27	=27
2A\	.	2e\]	.	0r	.	0r	.
2F\	.	2d\	.	.	.	.	.
2E\	.	2.e\	.	.	.	.	.
[2G\	.	.	.	.	.	.	.
.	.	4d\	.	.	.	.	.
=28	=28	=28	=28	=28	=28	=28	=28
2G\]	.	4B\	.	0r	.	0r	.
.	.	4c\	.	.	.	.	.
2F\	.	1d	.	.	.	.	.
2G\	.	.	.	.	.	.	.
2E\	.	[2c\	.	.	.	.	.
=29	=29	=29	=29	=29	=29	=29	=29
1D	-ctus	2c\]	.	1r	.	0r	.
.	.	2B\	.	.	.	.	.
2.C/	Do-	1c	-us	2r	.	.	.
.	.	.	.	[2c\	Sa-	.	.
4D\	.	.	.	.	.	.	.
=30	=30	=30	=30	=30	=30	=30	=30
4E\	.	0r	.	2c\]	.	2r	.
4F\	.	.	.	.	.	.	.
2G\	.	.	.	2B\	.	1g	Sa-
2C/	.	.	.	2c\	.	.	.
2D\	.	.	.	2A/	.	2f/	.
=31	=31	=31	=31	=31	=31	=31	=31
2.G\	.	0r	.	2G/	.	2g/	.
.	.	.	.	1g	.	2e/	.
4A\	.	.	.	.	.	.	.
4B\	.	.	.	.	.	2d/	.
4c\	.	.	.	.	.	.	.
2d\	.	.	.	2f\	.	[2dd\	.
=32	=32	=32	=32	=32	=32	=32	=32
2G\	-mi-	1r	.	2g\	.	2dd\]	.
2A\	-nus	.	.	2e\	.	2cc#i\	.
2.D\	De-	2r	.	[1d	.	2.dd\	.
.	.	[2f\	Sa-	.	.	.	.
4E\	.	.	.	.	.	4cc\	.
=33	=33	=33	=33	=33	=33	=33	=33
4F\	.	2f\]	.	2d\]	.	2a/	.
4G\	.	.	.	.	.	.	.
2A\	.	2e\	.	2c\	.	2cc\	.
2D\	-us	2f\	.	2A/	.	2dd\	.
2BB-/	Sa-	2d\	.	2B-i\	.	2ff\	.
=34	=34	=34	=34	=34	=34	=34	=34
4C/	.	2c\	.	2.G/	.	2.ee\	.
4D\	.	.	.	.	.	.	.
4E\	.	1g	.	.	.	.	.
4F\	.	.	.	4A/	.	4dd\	.
2G\	.	.	.	4B\	.	4b\	.
.	.	.	.	4G/	.	4cc\	.
2D\	.	2f#i\	.	2A/	.	[2dd\	.
=35	=35	=35	=35	=35	=35	=35	=35
2E\	.	2g\	.	2G/	.	4dd\]	.
.	.	.	.	.	.	4cc\	.
2C/	.	2e\	.	2.g\	.	1cc	.
1G	-ba-	1d	-ba-	.	.	.	.
.	.	.	.	4f\	.	.	.
.	.	.	.	2d\	.	2b\	-ba-
=36	=36	=36	=36	=36	=36	=36	=36
[0Cl	-oth.	[0cl	-oth.	2e\	.	[0ccl	-oth.
.	.	.	.	2c\	.	.	.
.	.	.	.	1g	-ba-	.	.
=37	=37	=37	=37	=37	=37	=37	=37
0C]	.	0c]	.	0gl	-oth.	0cc]	.
!!LO:LB:i:g=z
=38||	=38||	=38||	=38||	=38||	=38||	=38||	=38||
*>B	*>B	*>B	*>B	*>B	*>B	*>B	*>B
*clefF4	*	*clefGv2	*	*clefGv2	*	*clefG2	*
*k[]	*	*k[]	*	*k[]	*	*k[]	*
*M2/1	*	*M2/1	*	*M2/1	*	*M2/1	*
*met(C|)	*	*met(C|)	*	*met(C|)	*	*met(C|)	*
!!section: Pleni
!!!OMD: Pleni
0r	.	0c	Ple-	0r	.	0r	.
=39	=39	=39	=39	=39	=39	=39	=39
1r	.	1c	-ni	0r	.	0r	.
[1C	Ple-	[1g	sunt	.	.	.	.
=40	=40	=40	=40	=40	=40	=40	=40
1C]	.	2g\]	.	0r	.	0r	.
.	.	2f\	.	.	.	.	.
[1G	.	1e	.	.	.	.	.
=41	=41	=41	=41	=41	=41	=41	=41
0G_	.	2.d\	.	0r	.	0r	.
.	.	4c\	.	.	.	.	.
.	.	2d\	.	.	.	.	.
.	.	[2e\	.	.	.	.	.
=42	=42	=42	=42	=42	=42	=42	=42
1G]	.	2e\]	.	0r	.	0r	.
.	.	4d\	.	.	.	.	.
.	.	4c\	.	.	.	.	.
1G	-ni	2B\	.	.	.	.	.
.	.	[2d\	.	.	.	.	.
=43	=43	=43	=43	=43	=43	=43	=43
1F	.	2d\]	.	0r	.	0r	.
.	.	4c\	.	.	.	.	.
.	.	4B\	.	.	.	.	.
1F	sunt	1A	.	.	.	.	.
=44	=44	=44	=44	=44	=44	=44	=44
2r	.	0G	.	0r	.	0r	.
2.G\	cae-	.	.	.	.	.	.
4F\	.	.	.	.	.	.	.
2G\	.	.	.	.	.	.	.
=45	=45	=45	=45	=45	=45	=45	=45
2E\	.	1c	cae-	0r	.	0r	.
1F	.	.	.	.	.	.	.
.	.	1d	.	.	.	.	.
4E\	.	.	.	.	.	.	.
4D\	.	.	.	.	.	.	.
=46	=46	=46	=46	=46	=46	=46	=46
0C	-li,	1.e	.	0r	.	0r	.
.	.	4d\	.	.	.	.	.
.	.	4c\	.	.	.	.	.
=47	=47	=47	=47	=47	=47	=47	=47
2r	.	2d\	.	0r	.	0r	.
2G\	[ple-	2e\	.	.	.	.	.
2A\	-ni	2.f\	.	.	.	.	.
2B\	sunt	.	.	.	.	.	.
.	.	4g\	.	.	.	.	.
=48	=48	=48	=48	=48	=48	=48	=48
1c	cae-	2e\	.	0r	.	0r	.
.	.	2.g\	.	.	.	.	.
2B\	.	.	.	.	.	.	.
.	.	4f\	.	.	.	.	.
2G\	.	[2e\	.	.	.	.	.
=49	=49	=49	=49	=49	=49	=49	=49
1A	.	2e\]	.	0r	.	0r	.
.	.	4d\	.	.	.	.	.
.	.	4c\	.	.	.	.	.
1G	.	2d\	.	.	.	.	.
.	.	2B\	.	.	.	.	.
=50	=50	=50	=50	=50	=50	=50	=50
2E\	.	2c\	.	0r	.	0r	.
2F\	.	2.d\	.	.	.	.	.
2.G\	.	.	.	.	.	.	.
.	.	4c\	.	.	.	.	.
.	.	4B\	.	.	.	.	.
4F\	.	4A/	.	.	.	.	.
=51	=51	=51	=51	=51	=51	=51	=51
4E\	.	2G/	.	0r	.	0r	.
4D\	.	.	.	.	.	.	.
2C/	.	2c\	.	.	.	.	.
2F\	.	2d\	.	.	.	.	.
[2G\	.	[2e\	.	.	.	.	.
=52	=52	=52	=52	=52	=52	=52	=52
4G\]	.	4e\]	.	0r	.	0r	.
4F\	.	4d\	.	.	.	.	.
2E\	.	1c	.	.	.	.	.
1D	.	.	.	.	.	.	.
.	.	2B\	.	.	.	.	.
=53	=53	=53	=53	=53	=53	=53	=53
1C	-li]	[0c	-li	0r	.	0r	.
2r	.	.	.	.	.	.	.
2C/	et	.	.	.	.	.	.
=54	=54	=54	=54	=54	=54	=54	=54
2.F\	ter-	0c]	.	0r	.	0r	.
4E\	.	.	.	.	.	.	.
4F\	.	.	.	.	.	.	.
4G\	.	.	.	.	.	.	.
[2A\	.	.	.	.	.	.	.
=55	=55	=55	=55	=55	=55	=55	=55
4A\]	.	1r	.	0r	.	0r	.
4G\	.	.	.	.	.	.	.
1c	.	.	.	.	.	.	.
.	.	1G	et	.	.	.	.
2B\	.	.	.	.	.	.	.
=56	=56	=56	=56	=56	=56	=56	=56
1c	-ra,	2.c\	ter-	0r	.	0r	.
.	.	4B\	.	.	.	.	.
2r	.	4c\	.	.	.	.	.
.	.	4d\	.	.	.	.	.
2C/	[et	[2e\	.	.	.	.	.
=57	=57	=57	=57	=57	=57	=57	=57
1G	ter-	4e\]	.	0r	.	0r	.
.	.	4d\	.	.	.	.	.
.	.	1g	.	.	.	.	.
1A	.	.	.	.	.	.	.
.	.	2f#i\	.	.	.	.	.
=58	=58	=58	=58	=58	=58	=58	=58
2.G\	.	0g	-ra	0r	.	0r	.
4A\	.	.	.	.	.	.	.
2B\	.	.	.	.	.	.	.
[2c\	.	.	.	.	.	.	.
=59	=59	=59	=59	=59	=59	=59	=59
2c\]	.	2r	.	0r	.	0r	.
4B\	.	1g	glo-	.	.	.	.
4A\	.	.	.	.	.	.	.
2B\	.	.	.	.	.	.	.
2c\	.	4f\	.	.	.	.	.
.	.	4e\	.	.	.	.	.
=60	=60	=60	=60	=60	=60	=60	=60
2A\	.	2.f\	-ri-	0r	.	0r	.
2G\	-ra,]	.	.	.	.	.	.
.	.	4g\	-a	.	.	.	.
2r	.	2e\	tu-	.	.	.	.
2G\	[glo-	2d\	-a,	.	.	.	.
=61	=61	=61	=61	=61	=61	=61	=61
2A\	-ri-	2r	.	0r	.	0r	.
2B\	-a	2d\	[glo-	.	.	.	.
2.c\	tu-	2e\	-ri-	.	.	.	.
.	.	2f\	-a	.	.	.	.
4B\	.	.	.	.	.	.	.
=62	=62	=62	=62	=62	=62	=62	=62
2G\	.	2.g\	tu-	0r	.	0r	.
1c	.	.	.	.	.	.	.
.	.	4f\	.	.	.	.	.
.	.	2e\	.	.	.	.	.
2B\	.	2d\	.	.	.	.	.
=63	=63	=63	=63	=63	=63	=63	=63
1A	.	2e\	.	0r	.	0r	.
.	.	4d\	.	.	.	.	.
.	.	4c\	.	.	.	.	.
2G\	.	4d\	.	.	.	.	.
.	.	4e\	.	.	.	.	.
[2A\	.	[2f\	.	.	.	.	.
=64	=64	=64	=64	=64	=64	=64	=64
4A\]	.	4f\]	.	0r	.	0r	.
4G\	.	4e\	.	.	.	.	.
2E\	.	1e	.	.	.	.	.
1F	.	.	.	.	.	.	.
.	.	2d\	.	.	.	.	.
=65	=65	=65	=65	=65	=65	=65	=65
1E	-a,]	0e	-a,]	0r	.	0r	.
2r	.	.	.	.	.	.	.
[2E\	glo-	.	.	.	.	.	.
=66	=66	=66	=66	=66	=66	=66	=66
4E\]	.	2r	.	0r	.	0r	.
4F\	.	.	.	.	.	.	.
1G	.	2.B\	glo-	.	.	.	.
.	.	4c\	.	.	.	.	.
4F\	.	[2d\	.	.	.	.	.
4E\	.	.	.	.	.	.	.
=67	=67	=67	=67	=67	=67	=67	=67
2F\	.	2d\]	.	0r	.	0r	.
2G\	-ri-	4c\	.	.	.	.	.
.	.	4B\	.	.	.	.	.
2C/	-a	2c\	.	.	.	.	.
[2G\	tu-	2d\	-ri-	.	.	.	.
=68	=68	=68	=68	=68	=68	=68	=68
4G\]	.	2G/	-a	0r	.	0r	.
4A\	.	.	.	.	.	.	.
4B\	.	2d\	tu-	.	.	.	.
8A\L	.	.	.	.	.	.	.
8B\J	.	.	.	.	.	.	.
1c	.	2e\	.	.	.	.	.
.	.	[2g\	.	.	.	.	.
=69	=69	=69	=69	=69	=69	=69	=69
2B\	.	4g\]	.	0r	.	0r	.
.	.	4f\	.	.	.	.	.
2c\	.	1e	.	.	.	.	.
1A	.	.	.	.	.	.	.
.	.	4d\	.	.	.	.	.
.	.	4c\	.	.	.	.	.
=70	=70	=70	=70	=70	=70	=70	=70
[0G	.	2.B\	.	0r	.	0r	.
.	.	4c\	.	.	.	.	.
.	.	4d\	.	.	.	.	.
.	.	4e\	.	.	.	.	.
.	.	[2d\	.	.	.	.	.
=71	=71	=71	=71	=71	=71	=71	=71
0G]	.	4d\]	.	0r	.	0r	.
.	.	4c\	.	.	.	.	.
.	.	4B\	.	.	.	.	.
.	.	4A/	.	.	.	.	.
.	.	4G/	.	.	.	.	.
.	.	4A/	.	.	.	.	.
.	.	4B\	.	.	.	.	.
.	.	4c\	.	.	.	.	.
=72	=72	=72	=72	=72	=72	=72	=72
1F	.	4d\	.	0r	.	0r	.
.	.	4e\	.	.	.	.	.
.	.	4f\	.	.	.	.	.
.	.	8e\L	.	.	.	.	.
.	.	8f\J	.	.	.	.	.
2G\	.	2e\	.	.	.	.	.
4F\	.	[2d\	.	.	.	.	.
4E\	.	.	.	.	.	.	.
=73	=73	=73	=73	=73	=73	=73	=73
4F\	.	2d\]	.	0r	.	0r	.
4E\	.	.	.	.	.	.	.
4D\	.	1c	.	.	.	.	.
4C/	.	.	.	.	.	.	.
1D	.	.	.	.	.	.	.
.	.	2B\	.	.	.	.	.
=74	=74	=74	=74	=74	=74	=74	=74
0Cl	-a.	0cl	-a.	0r	.	0r	.
!!LO:LB:i:g=z
=75||	=75||	=75||	=75||	=75||	=75||	=75||	=75||
*>C	*>C	*>C	*>C	*>C	*>C	*>C	*>C
*clefF4	*	*clefGv2	*	*clefGv2	*	*clefG2	*
*k[]	*	*k[]	*	*k[]	*	*k[]	*
*M3/1	*	*M3/1	*	*M3/1	*	*M3/1	*
*met(3)	*	*met(3)	*	*met(3)	*	*met(3)	*
!!section: Osanna
!!!OMD: Osanna
1.c	Ho-	1c	Ho-	0e	Ho-	1cc	Ho-
.	.	1c	-san-	.	.	1cc	-san-
2B\	.	.	.	.	.	.	.
1A	.	1c	-na,	1f	-san-	1cc	-na,
=76	=76	=76	=76	=76	=76	=76	=76
1.G	-san-	0d	[Ho-	1g	.	2.b\	[Ho-
.	.	.	.	.	.	4cc\	.
.	.	.	.	1G	.	4dd\	.
.	.	.	.	.	.	4cc\	.
4F\	.	.	.	.	.	2.dd\	-san-
4E\	.	.	.	.	.	.	.
1F	.	1d	-san-	1A	.	.	.
.	.	.	.	.	.	4cc\	.
.	.	.	.	.	.	4b\	.
.	.	.	.	.	.	4a/	.
=77	=77	=77	=77	=77	=77	=77	=77
1.E	.	0e	.	1B	.	0g	-na,]
.	.	.	.	1G	.	.	.
2C/	.	.	.	.	.	.	.
1C	-na	1e	-na,]	[1c	.	1r	.
=78	=78	=78	=78	=78	=78	=78	=78
1r	.	0c	.	2c\]	.	1g	[Ho-
.	.	.	.	2d\	.	.	.
1c	in	.	.	2e\	.	1g	-san-
.	.	.	.	2c\	.	.	.
1B	ex-	1r	.	1d	.	1g	-na,
=79	=79	=79	=79	=79	=79	=79	=79
0A	-cel-	1c	[Ho-	0e	.	0a	Ho-
.	.	1c	-san-	.	.	.	.
1A	-sis,	1c	-na,	1f	.	1a	-san-
=80	=80	=80	=80	=80	=80	=80	=80
1.G	.	0d	Ho-	1.g	.	0b	.
2A\	.	.	.	4f\	.	.	.
.	.	.	.	4e\	.	.	.
2B\	.	1d	-san-	1d	.	1b	-na,
2G\	.	.	.	.	.	.	.
=81	=81	=81	=81	=81	=81	=81	=81
1.c	.	0e	.	2c\	.	0g	.
.	.	.	.	1e	.	.	.
2B\	.	.	.	4d\	.	.	.
.	.	.	.	4c\	.	.	.
1G	.	1e	-na,	1B	.	1g	.
=82	=82	=82	=82	=82	=82	=82	=82
1.A	.	0c	Ho-	0A	-na	1.cc	.
2G\	.	.	.	.	.	2b\	.
2F\	.	1c	-san-	1r	.	1a	.
2E\	.	.	.	.	.	.	.
=83	=83	=83	=83	=83	=83	=83	=83
1.D	.	0f	.	1A	in	1.dd	in
.	.	.	.	1A	ex-	.	.
2E\	.	.	.	.	.	4cc\	.
.	.	.	.	.	.	4b\	.
1F	.	1f	-na,	1A	-cel-	1a	.
=84	=84	=84	=84	=84	=84	=84	=84
1.G	in	0d	Ho-	1.B	.	2.g/	ex-
.	.	.	.	.	.	4a/	.
.	.	.	.	.	.	2b\	.
4F\	.	.	.	2A/	.	2cc\	.
4E\	.	.	.	.	.	.	.
1D	.	1d	-san-	1B	.	1dd	.
=85	=85	=85	=85	=85	=85	=85	=85
1.C	ex-	1.g	.	1c	.	1.ee	-cel-
.	.	.	.	1.g	.	.	.
2D\	.	2f\	-na]	.	.	2dd\	.
1E	.	2e\	.	.	.	2cc\	.
.	.	2d\	.	2f\	.	2b\	.
=86	=86	=86	=86	=86	=86	=86	=86
1.F	-cel-	0c	in	0f	.	1.a	.
2G\	.	.	.	.	.	2b\	.
1A	.	1c	ex-	1e	.	1cc	.
=87	=87	=87	=87	=87	=87	=87	=87
0D	.	0f	-cel-	0d	.	0dd	.
[1A	.	1e	.	1e	.	1cc	.
=88	=88	=88	=88	=88	=88	=88	=88
1A]	.	1f	.	1c	.	1a	.
0G	.	1g	.	1d	.	1b	.
.	.	1e	.	1B	.	1g	.
=89	=89	=89	=89	=89	=89	=89	=89
1F	.	1f	.	1c	.	2a/	-sis,
.	.	.	.	.	.	1cc	in
0G	.	0d	-sis,	0g	-sis,	.	.
.	.	.	.	.	.	4b\	.
.	.	.	.	.	.	4a/	.
.	.	.	.	.	.	1b	.
=90	=90	=90	=90	=90	=90	=90	=90
0C	.	0c	in	0e	in	1.cc	ex-
.	.	.	.	.	.	2dd\	.
1C	.	1c	ex-	1e	ex-	1ee	.
=91	=91	=91	=91	=91	=91	=91	=91
1D	.	0f	-cel-	0d	-cel-	2a/	-cel-
.	.	.	.	.	.	2.dd\	.
1BB	.	.	.	.	.	.	.
.	.	.	.	.	.	4cc\	.
.	.	.	.	.	.	4b\	.
.	.	.	.	.	.	4a/	.
1C	.	1e	.	1g	.	1g	.
=92	=92	=92	=92	=92	=92	=92	=92
1D	.	1f	.	1f	.	1dd	.
1C	.	1g	.	1e	.	1.ee	.
1c	.	1e	.	1g	.	.	.
.	.	.	.	.	.	2dd\	.
=93	=93	=93	=93	=93	=93	=93	=93
1F	.	1f	.	1a	.	1.cc	.
0G	.	0d	.	0g	.	.	.
.	.	.	.	.	.	4b\	.
.	.	.	.	.	.	4a/	.
.	.	.	.	.	.	1b	.
=94	=94	=94	=94	=94	=94	=94	=94
0.Cl	-sis.	0.cl	-sis.	0.gl	-sis.	0.ccl	-sis.
!!LO:TX:rj:Z=12:i:t=fine
!!LO:LB:i:g=z
=95||	=95||	=95||	=95||	=95||	=95||	=95||	=95||
*>D	*>D	*>D	*>D	*>D	*>D	*>D	*>D
*clefF4	*	*clefGv2	*	*clefGv2	*	*clefG2	*
*k[]	*	*k[]	*	*k[]	*	*k[]	*
*M2/1	*	*M2/1	*	*M2/1	*	*M2/1	*
*met(C|)	*	*met(C|)	*	*met(C|)	*	*met(C|)	*
!!section: Benedictus
!!!OMD: Benedictus
0r	.	0r	.	[0g	Be-	1.dd	Be-
.	.	.	.	.	.	4cc\	.
.	.	.	.	.	.	4dd\	.
=96	=96	=96	=96	=96	=96	=96	=96
0r	.	0r	.	0g]	.	2ee\	.
.	.	.	.	.	.	2dd\	-ne-
.	.	.	.	.	.	2b\	-di-
.	.	.	.	.	.	[2dd\	.
=97	=97	=97	=97	=97	=97	=97	=97
0r	.	0r	.	1g	-ne-	2dd\]	.
.	.	.	.	.	.	4cc\	.
.	.	.	.	.	.	4b\	.
.	.	.	.	1f	.	2.a/	.
.	.	.	.	.	.	4b\	.
=98	=98	=98	=98	=98	=98	=98	=98
0r	.	0r	.	1e	-di-	2cc\	.
.	.	.	.	.	.	2.b\	.
.	.	.	.	[1g	.	.	.
.	.	.	.	.	.	4a/	.
.	.	.	.	.	.	4g/	.
.	.	.	.	.	.	4f/	.
=99	=99	=99	=99	=99	=99	=99	=99
0r	.	0r	.	1g]	.	1e	-ctus,
.	.	.	.	1g	-ctus	2r	.
.	.	.	.	.	.	[2ee\	[Be-
=100	=100	=100	=100	=100	=100	=100	=100
0r	.	0r	.	1f	.	2ee\]	.
.	.	.	.	.	.	2dd\	-ne-
.	.	.	.	1e	.	2cc\	-di-
.	.	.	.	.	.	[2b\	.
=101	=101	=101	=101	=101	=101	=101	=101
0r	.	0r	.	1g	.	2b\]	.
.	.	.	.	.	.	1dd	.
.	.	.	.	2f\	.	.	.
.	.	.	.	2e\	.	2cc\	.
=102	=102	=102	=102	=102	=102	=102	=102
0r	.	0r	.	2.d\	.	2b\	.
.	.	.	.	.	.	1a	.
.	.	.	.	4e\	.	.	.
.	.	.	.	4f\	.	.	.
.	.	.	.	4g\	.	.	.
.	.	.	.	[2a\	.	[2cc\	.
=103	=103	=103	=103	=103	=103	=103	=103
0r	.	0r	.	4a\]	.	2cc\]	.
.	.	.	.	4g\	.	.	.
.	.	.	.	1g	.	2b\	.
.	.	.	.	.	.	1a	.
.	.	.	.	2f#i\	.	.	.
=104	=104	=104	=104	=104	=104	=104	=104
0r	.	0r	.	1g	.	0g	-ctus,]
.	.	.	.	1r	.	.	.
=105	=105	=105	=105	=105	=105	=105	=105
[0c	Be-	0r	.	1.g	qui	0r	.
.	.	.	.	4f\	.	.	.
.	.	.	.	4g\	.	.	.
=106	=106	=106	=106	=106	=106	=106	=106
0c]	.	0r	.	2a\	.	0r	.
.	.	.	.	2g\	.	.	.
.	.	.	.	2e\	ve-	.	.
.	.	.	.	[2g\	.	.	.
=107	=107	=107	=107	=107	=107	=107	=107
1c	-ne-	0r	.	2g\]	.	0r	.
.	.	.	.	4f\	.	.	.
.	.	.	.	4e\	.	.	.
1B	.	.	.	2.d\	.	.	.
.	.	.	.	4e\	.	.	.
=108	=108	=108	=108	=108	=108	=108	=108
1A	-di-	0r	.	2f\	.	0r	.
.	.	.	.	2.e\	.	.	.
[1c	.	.	.	.	.	.	.
.	.	.	.	4d\	.	.	.
.	.	.	.	4c\	.	.	.
.	.	.	.	4B\	.	.	.
=109	=109	=109	=109	=109	=109	=109	=109
1c]	.	0r	.	1A	-nit,	0r	.
1c	-ctus	.	.	2r	.	.	.
.	.	.	.	[2a\	[qui	.	.
=110	=110	=110	=110	=110	=110	=110	=110
1B	.	0r	.	2a\]	.	0r	.
.	.	.	.	2g\	.	.	.
1A	.	.	.	2f\	ve-	.	.
.	.	.	.	[2e\	.	.	.
=111	=111	=111	=111	=111	=111	=111	=111
1c	.	0r	.	2e\]	.	0r	.
.	.	.	.	1g	.	.	.
2B\	.	.	.	.	.	.	.
2A\	.	.	.	2f\	.	.	.
=112	=112	=112	=112	=112	=112	=112	=112
2.G\	.	0r	.	2e\	.	0r	.
.	.	.	.	1d	.	.	.
4A\	.	.	.	.	.	.	.
4B\	.	.	.	.	.	.	.
4c\	.	.	.	.	.	.	.
[2d\	.	.	.	[2f\	.	.	.
=113	=113	=113	=113	=113	=113	=113	=113
4d\]	.	0r	.	2f\]	.	0r	.
4c\	.	.	.	.	.	.	.
1c	.	.	.	2e\	.	.	.
.	.	.	.	1d	.	.	.
2B\	.	.	.	.	.	.	.
=114	=114	=114	=114	=114	=114	=114	=114
2.c\	.	0r	.	1c	-nit,]	1r	.
4A\	.	.	.	.	.	.	.
2B\	.	.	.	1r	.	2r	.
2c\	.	.	.	.	.	[2ee\	Be-
=115	=115	=115	=115	=115	=115	=115	=115
2A\	.	0r	.	0r	.	2ee\]	.
2B\	.	.	.	.	.	2dd\	-ne-
2c\	.	.	.	.	.	2cc\	-di-
2d\	.	.	.	.	.	[2b\	.
=116	=116	=116	=116	=116	=116	=116	=116
1G	.	0r	.	1g	[qui	2b\]	.
.	.	.	.	.	.	1dd	.
1r	.	.	.	2f\	ve-	.	.
.	.	.	.	2e\	.	2cc\	.
=117	=117	=117	=117	=117	=117	=117	=117
1r	.	0r	.	1d	.	2b\	.
.	.	.	.	.	.	1a	.
2r	.	.	.	1f	.	.	.
[2A\	qui	.	.	.	.	[2cc\	.
=118	=118	=118	=118	=118	=118	=118	=118
2A\]	.	0r	.	2.e\	.	2cc\]	.
2G\	.	.	.	.	.	2b\	.
.	.	.	.	4d\	.	.	.
2F\	.	.	.	2d\	.	2a/	.
[2E\	.	.	.	[2e\	.	[2g/	.
=119	=119	=119	=119	=119	=119	=119	=119
2E\]	.	0r	.	2e\]	.	2g/]	.
1G	ve-	.	.	4d\	.	4f/	.
.	.	.	.	4c\	.	4e/	.
.	.	.	.	4B\	.	1d	-ctus
.	.	.	.	4c\	.	.	.
2F\	.	.	.	2A/	.	.	.
=120	=120	=120	=120	=120	=120	=120	=120
2E\	.	0r	.	4G/	.	0r	.
.	.	.	.	4A/	.	.	.
1D	.	.	.	4B\	.	.	.
.	.	.	.	4c\	.	.	.
.	.	.	.	4d\	.	.	.
.	.	.	.	4e\	.	.	.
[2F\	.	.	.	[2d\	.	.	.
=121	=121	=121	=121	=121	=121	=121	=121
2F\]	.	0r	.	4d\]	.	1r	.
.	.	.	.	4c\	.	.	.
2E\	.	.	.	1c	.	.	.
1D	-nit,	.	.	.	.	1dd	qui
.	.	.	.	2B\	.	.	.
=122	=122	=122	=122	=122	=122	=122	=122
2r	.	0r	.	0c	-nit]	[0ee	ve-
2.C/	[qui	.	.	.	.	.	.
4D\	.	.	.	.	.	.	.
4E\	.	.	.	.	.	.	.
4F\	.	.	.	.	.	.	.
=123	=123	=123	=123	=123	=123	=123	=123
2G\	.	0r	.	0r	.	0ee]	.
2C/	.	.	.	.	.	.	.
2.G\	ve-	.	.	.	.	.	.
4A\	.	.	.	.	.	.	.
=124	=124	=124	=124	=124	=124	=124	=124
4B\	.	0r	.	0r	.	2.dd\	.
4c\	.	.	.	.	.	.	.
2d\	.	.	.	.	.	.	.
.	.	.	.	.	.	4ee\	.
2B\	.	.	.	.	.	4ff\	.
.	.	.	.	.	.	4dd\	.
[2c\	.	.	.	.	.	[2ee\	.
=125	=125	=125	=125	=125	=125	=125	=125
2c\]	.	0r	.	1r	.	2ee\]	.
4B\	.	.	.	.	.	4dd\	.
4A\	.	.	.	.	.	4cc\	.
[1G	-nit]	.	.	2r	.	2.b\	.
.	.	.	.	[2G/	in	.	.
.	.	.	.	.	.	4a/	.
=126	=126	=126	=126	=126	=126	=126	=126
1G]	.	0r	.	4G/]	.	4b\	.
.	.	.	.	4A/	.	4cc\	.
.	.	.	.	4B\	.	1dd	.
.	.	.	.	4c\	.	.	.
1r	.	.	.	2d\	.	.	.
.	.	.	.	2G/	.	4cc\	.
.	.	.	.	.	.	4b\	.
=127	=127	=127	=127	=127	=127	=127	=127
0r	.	0r	.	2.d\	no-	4a/	.
.	.	.	.	.	.	4g/	.
.	.	.	.	.	.	4f/	.
.	.	.	.	4e\	.	4e/	.
.	.	.	.	4f\	.	1d	.
.	.	.	.	4g\	.	.	.
.	.	.	.	2a\	.	.	.
=128	=128	=128	=128	=128	=128	=128	=128
0r	.	0r	.	2f\	.	1dd	.
.	.	.	.	1g	-mi-	.	.
.	.	.	.	.	.	1ee	.
.	.	.	.	4f\	.	.	.
.	.	.	.	4e\	.	.	.
=129	=129	=129	=129	=129	=129	=129	=129
2r	.	0r	.	1d	.	1ff	.
2d\	in	.	.	.	.	.	.
2c\	no-	.	.	[1a	-ne	2ee\	.
[2d\	-mi-	.	.	.	.	[2ff\	.
=130	=130	=130	=130	=130	=130	=130	=130
2d\]	.	0r	.	1a]	.	2ff\]	.
4c\	.	.	.	.	.	4ee\	.
4B\	.	.	.	.	.	4dd\	.
2.A\	-ne	.	.	1a	Do-	2.cc\	.
4B\	.	.	.	.	.	4dd\	.
=131	=131	=131	=131	=131	=131	=131	=131
2c\	.	0r	.	2g\	.	2ee\	.
2.d\	Do-	.	.	2f\	.	2.a/	.
.	.	.	.	1a	.	.	.
4c\	.	.	.	.	.	4b\	.
4A\	.	.	.	.	.	4cc\	.
4B\	.	.	.	.	.	4dd\	.
=132	=132	=132	=132	=132	=132	=132	=132
2c\	.	0r	.	2g\	.	2ee\	.
2d\	-mi-	.	.	2f\	.	1dd	.
1A	-ni,	.	.	1e	.	.	.
.	.	.	.	.	.	2cc#i\	.
=133	=133	=133	=133	=133	=133	=133	=133
2r	.	0r	.	2.d\	.	2.dd\	.
2.B-\	[Do-	.	.	.	.	.	.
.	.	.	.	4e\	.	4cc\	.
.	.	.	.	4f\	.	4dd\	.
4A\	.	.	.	4g\	.	4b\	.
2F\	.	.	.	[2a\	.	[2cc\	.
=134	=134	=134	=134	=134	=134	=134	=134
1G	.	0r	.	4a\]	.	4cc\]	.
.	.	.	.	4g\	.	4b\	.
.	.	.	.	1g	.	4a/	.
.	.	.	.	.	.	4g/	.
1D	-mi-	.	.	.	.	1a	.
.	.	.	.	2f#i\	-mi-	.	.
=135	=135	=135	=135	=135	=135	=135	=135
1G	-ni,]	0r	.	0g	-ni,	0g	-nit
1r	.	.	.	.	.	.	.
=136	=136	=136	=136	=136	=136	=136	=136
1c	[in	0r	.	2r	.	0r	.
.	.	.	.	2.g\	in	.	.
2B\	no-	.	.	.	.	.	.
.	.	.	.	4e\	.	.	.
2A\	.	.	.	2f\	.	.	.
=137	=137	=137	=137	=137	=137	=137	=137
2.c\	.	0r	.	2e\	no-	0r	.
.	.	.	.	2.g\	.	.	.
4B\	.	.	.	.	.	.	.
1G	.	.	.	.	.	.	.
.	.	.	.	4f\	.	.	.
.	.	.	.	[2d\	.	.	.
=138	=138	=138	=138	=138	=138	=138	=138
2F\	-mi-	0r	.	4d\]	.	0r	.
.	.	.	.	8c\L	.	.	.
.	.	.	.	8B\J	.	.	.
2E\	-ne	.	.	2c\	.	.	.
2.G\	Do-	.	.	2B\	.	.	.
.	.	.	.	[2d\	.	.	.
4F\	.	.	.	.	.	.	.
=139	=139	=139	=139	=139	=139	=139	=139
2D\	.	0r	.	4d\]	.	0r	.
.	.	.	.	4c\	.	.	.
2.F\	.	.	.	2A/	.	.	.
.	.	.	.	2.c\	.	.	.
4E\	.	.	.	.	.	.	.
[2C/	.	.	.	.	.	.	.
.	.	.	.	4B\	.	.	.
=140	=140	=140	=140	=140	=140	=140	=140
4C/]	.	0r	.	2.G/	.	0r	.
4D\	.	.	.	.	.	.	.
4E\	.	.	.	.	.	.	.
4F\	.	.	.	4A/	.	.	.
2.G\	.	.	.	4B\	.	.	.
.	.	.	.	4c\	.	.	.
.	.	.	.	4d\	.	.	.
8F\L	.	.	.	4e\	.	.	.
8E\J	.	.	.	.	.	.	.
=141	=141	=141	=141	=141	=141	=141	=141
4F\	.	0r	.	4d\	.	2r	.
4E\	.	.	.	4c\	.	.	.
4D\	.	.	.	1c	.	2.gg\	in
4C/	.	.	.	.	.	.	.
1D	-mi-	.	.	.	.	.	.
.	.	.	.	.	.	4ee\	.
.	.	.	.	2B\	-mi-	2ff\	.
=142	=142	=142	=142	=142	=142	=142	=142
1C	-ni,]	0r	.	1c	-ne	2ee\	no-
.	.	.	.	.	.	2.gg\	.
2r	.	.	.	1g	Do-	.	.
.	.	.	.	.	.	4ff\	.
2G\	in	.	.	.	.	[2dd\	.
=143	=143	=143	=143	=143	=143	=143	=143
1A	no-	0r	.	2f\	.	4dd\]	.
.	.	.	.	.	.	4b\	.
.	.	.	.	2e\	.	2cc\	-mi-
2G\	-mi-	.	.	2.g\	.	2b\	-ne
[2B\	-ne	.	.	.	.	[2dd\	Do-
.	.	.	.	4f\	.	.	.
=144	=144	=144	=144	=144	=144	=144	=144
4B\]	.	0r	.	2d\	.	4dd\]	.
4A\	.	.	.	.	.	4cc\	.
2.F\	Do-	.	.	2.f\	.	2a/	.
.	.	.	.	.	.	2.cc\	.
4G\	.	.	.	4e\	.	.	.
4A\	.	.	.	[2c\	.	.	.
4B\	.	.	.	.	.	4b\	.
=145	=145	=145	=145	=145	=145	=145	=145
1c	.	0r	.	4c\]	.	2.g/	.
.	.	.	.	4d\	.	.	.
.	.	.	.	4e\	.	.	.
.	.	.	.	4f\	.	4a/	.
2B\	.	.	.	2.g\	.	4b\	.
.	.	.	.	.	.	4cc\	.
2G\	.	.	.	.	.	4dd\	.
.	.	.	.	8f\L	.	4ee\	.
.	.	.	.	8e\J	.	.	.
=146	=146	=146	=146	=146	=146	=146	=146
1A	.	0r	.	4f\	.	4dd\	.
.	.	.	.	4e\	.	4cc\	.
.	.	.	.	4d\	.	1cc	.
.	.	.	.	4c\	.	.	.
1G	-mi-	.	.	1d	-mi-	.	.
.	.	.	.	.	.	2b\	-mi-
=147	=147	=147	=147	=147	=147	=147	=147
0Cl	-ni.	0r	.	0cl	-ni.	0ccl	-ni.
!!LO:TX:i:Z=12:rj:t=Osanna ut supra
=||	=||	=||	=||	=||	=||	=||	=||
*-	*-	*-	*-	*-	*-	*-	*-
!!!RDF**kern: l=long note in original notation
!!!RDF**kern: i=editorial accidental
!!!ENC: Richard Freedman (CRIM)
!!!END: 2016/03/29/
!!!EED: Jesse Rodin
!!!EEV: 2016/03/30/
!!!ONB: Translated from MusicXML and edited on 2016/03/30/ by Craig Sapp
!!muse2ps: T^@{OPR}^u^@{ONM}{. }@{OTL}^C^@{COM}^i2I150v85,85,85,150Q16
